packages/core/src/svgs/ben.svg

<svg width="24" height="24" viewBox="0 0 24 24" fill="none" xmlns="http://www.w3.org/2000/svg">
<g clip-path="url(#clip0_31_6955)">
<path d="M0 0H24V24H0V0Z" fill="#F0F3FA"/>
<path d="M12.0002 18.857C15.7873 18.857 18.8574 15.9731 18.8574 12.4155C18.8574 8.85805 15.7873 5.97412 12.0002 5.97412C8.21311 5.97412 5.14307 8.85805 5.14307 12.4155C5.14307 15.9731 8.21311 18.857 12.0002 18.857Z" fill="#3B5169"/>
<path d="M12.0002 18.4459C15.7873 18.4459 18.8574 15.468 18.8574 11.7945C18.8574 8.12101 15.7873 5.14307 12.0002 5.14307C8.21311 5.14307 5.14307 8.12101 5.14307 11.7945C5.14307 15.468 8.21311 18.4459 12.0002 18.4459Z" fill="#6389B0"/>
<path d="M12 17.16C15.0771 17.16 17.5714 14.7514 17.5714 11.7857C17.5714 8.82 15.0771 6.41143 12 6.41143C8.92286 6.41143 6.42857 8.82 6.42857 11.7857C6.42857 14.7514 8.92286 17.16 12 17.16ZM12 17.5714C15.3129 17.5714 18 14.9829 18 11.7857C18 8.58857 15.3129 6 12 6C8.68714 6 6 8.58857 6 11.7857C6 14.9829 8.68714 17.5714 12 17.5714Z" fill="#E2E3E9"/>
<path d="M12.0001 17.143C15.0772 17.143 17.5716 14.7445 17.5716 11.7859C17.5716 8.82719 15.0772 6.42871 12.0001 6.42871C8.92312 6.42871 6.42871 8.82719 6.42871 11.7859C6.42871 14.7445 8.92312 17.143 12.0001 17.143Z" fill="url(#paint0_linear_31_6955)"/>
<path d="M9.85735 9.85725V9.71582H11.1431V9.85725H9.85735ZM12.4288 9.85725V9.71582H13.7145V9.85725H12.4288ZM11.1431 11.3787V11.1687L11.7859 11.5844L12.4288 10.963V11.1687L11.7859 11.7944L11.1431 11.3787ZM9.85735 10.543L9.64307 10.3372L9.42878 11.3787H9.64307L9.85735 10.5472V10.543ZM9.00021 13.8687L6.64307 11.5844V11.7944L9.08592 14.0787L9.30021 13.0372L9.85735 13.2472L11.1431 12.4158V12.2058L9.85735 13.0372C9.68592 12.8744 9.35592 12.8315 9.2145 12.8315L9.00021 13.8687ZM11.1431 16.4915V16.2858L12.0002 16.7015L12.8574 16.2858C12.7159 15.4544 12.6431 13.0372 14.3574 12.4158L14.5716 12.6215C13.5002 12.9987 12.6859 14.4558 12.8574 16.2858V16.4915L12.0002 16.9072L11.1431 16.4915ZM16.9288 11.5844V11.3787L14.5716 13.243V13.4487L16.9288 11.5801V11.5844Z" fill="#7D7F7C"/>
<path d="M11.1431 9.71562V11.1728L11.7859 11.5842L12.4288 10.9628V9.71562H13.7145L11.5716 7.01562L9.85735 9.71562H11.1431ZM12.0002 16.7013L11.1431 16.2856C10.8002 12.7928 12.9988 11.2371 14.1431 10.9628L13.9288 10.1313L16.9288 11.3742L14.5716 13.2471L14.3574 12.4156C12.8145 13.0799 12.7159 15.3171 12.8574 16.2856L12.0002 16.7013ZM11.1431 12.2056L9.85735 13.0371C9.68592 12.8742 9.35592 12.8313 9.2145 12.8313L9.00021 13.8685L6.64307 11.5842L9.64307 10.3413L9.42878 11.3785C10.2859 11.3785 10.9288 11.9313 11.1431 12.2056Z" fill="#E3E3E3"/>
</g>
<defs>
<linearGradient id="paint0_linear_31_6955" x1="6.42871" y1="11.3744" x2="17.7859" y2="11.3744" gradientUnits="userSpaceOnUse">
<stop stop-color="#6D7ACE"/>
<stop offset="0.2" stop-color="#9971A3"/>
<stop offset="0.54" stop-color="#CA6664"/>
<stop offset="1" stop-color="#E95E1B"/>
</linearGradient>
<clipPath id="clip0_31_6955">
<rect width="24" height="24" fill="white"/>
</clipPath>
</defs>
</svg>

<svg xmlns="http://www.w3.org/2000/svg" width="24" height="24" fill="none" viewBox="0 0 24 24"><g clip-path="url(#a)"><path fill="#F0F3FA" d="M0 0h24v24H0z"/><path fill="#3B5169" d="M12 18.857c3.787 0 6.857-2.884 6.857-6.441S15.787 5.974 12 5.974s-6.857 2.884-6.857 6.442c0 3.557 3.07 6.441 6.857 6.441"/><path fill="#6389B0" d="M12 18.446c3.787 0 6.857-2.978 6.857-6.652s-3.07-6.65-6.857-6.65-6.857 2.977-6.857 6.65 3.07 6.652 6.857 6.652"/><path fill="#E2E3E9" d="M12 17.16c3.077 0 5.571-2.409 5.571-5.374 0-2.966-2.494-5.375-5.571-5.375S6.429 8.82 6.429 11.786c0 2.965 2.494 5.374 5.571 5.374m0 .411c3.313 0 6-2.588 6-5.785S15.313 6 12 6s-6 2.589-6 5.786 2.687 5.785 6 5.785"/><path fill="url(#b)" d="M12 17.143c3.077 0 5.572-2.399 5.572-5.357S15.077 6.429 12 6.429 6.43 8.827 6.43 11.786 8.923 17.143 12 17.143"/><path fill="#7D7F7C" d="M9.857 9.857v-.141h1.286v.141zm2.572 0v-.141h1.285v.141zm-1.286 1.522v-.21l.643.415.643-.621v.206l-.643.625zm-1.286-.836-.214-.206-.214 1.042h.214l.214-.832zM9 13.869l-2.357-2.285v.21l2.443 2.285.214-1.042.557.21 1.286-.831v-.21l-1.286.831c-.171-.163-.501-.206-.643-.206zm2.143 2.622v-.205L12 16.7l.857-.415c-.141-.832-.214-3.249 1.5-3.87l.215.205c-1.072.378-1.886 1.835-1.715 3.665v.205l-.857.416zm5.786-4.907v-.205l-2.357 1.864v.206l2.357-1.869z"/><path fill="#E3E3E3" d="M11.143 9.716v1.457l.643.411.643-.621V9.716h1.285l-2.142-2.7-1.715 2.7zM12 16.7l-.857-.415c-.343-3.493 1.856-5.049 3-5.323l-.214-.832 3 1.243-2.357 1.873-.215-.831c-1.542.664-1.641 2.901-1.5 3.87zm-.857-4.495-1.286.831c-.171-.163-.501-.206-.643-.206L9 13.868l-2.357-2.284 3-1.243-.214 1.038c.857 0 1.5.552 1.714.827"/></g><defs><linearGradient id="b" x1="6.429" x2="17.786" y1="11.374" y2="11.374" gradientUnits="userSpaceOnUse"><stop stop-color="#6D7ACE"/><stop offset=".2" stop-color="#9971A3"/><stop offset=".54" stop-color="#CA6664"/><stop offset="1" stop-color="#E95E1B"/></linearGradient><clipPath id="a"><path fill="#fff" d="M0 0h24v24H0z"/></clipPath></defs></svg>
